icons/atomic.svg

<?xml version="1.0" encoding="UTF-8"?>
<svg width="256px" height="232px" viewBox="0 0 256 232" version="1.1" xmlns="http://www.w3.org/2000/svg" xmlns:xlink="http://www.w3.org/1999/xlink" preserveAspectRatio="xMidYMid">
    <g>
        <path d="M177.680199,230.74466 L34.9673497,230.74466 C15.6554574,230.74466 0,215.088968 0,195.777662 C0,176.462837 15.6525254,160.802454 34.9673497,160.791899 L115.832769,160.752019 C129.135709,160.744987 141.427814,167.843939 148.070547,179.369033 L177.680199,230.74466 Z" fill="#1E6EFA"></path>
        <path d="M26.4910632,141.083014 L97.847664,17.4894834 C107.503669,0.764892103 128.889421,-4.96539255 145.613533,4.69057708 C162.341163,14.3480244 168.077322,35.733777 158.428706,52.4656291 L118.030477,122.517608 C111.385281,134.04153 99.0905962,141.136963 85.7881252,141.12759 L26.4910632,141.083014 Z" fill="#FF3C5A"></path>
        <path d="M179.954256,54.9806963 L251.310857,178.573875 C260.967683,195.29916 255.237388,216.683974 238.512103,226.3408 C221.785646,235.997626 200.39614,230.272022 190.731105,213.550255 L150.262508,143.538855 C143.605701,132.02197 143.608047,117.826413 150.267199,106.311053 L179.954256,54.9806963 Z" fill="#FFC5CE"></path>
    </g>
</svg>

<svg xmlns="http://www.w3.org/2000/svg" viewBox="0 0 256.002 231.033">
  <path fill="#1e6efa" d="M177.68 230.745H34.967C15.655 230.745 0 215.089 0 195.778c0-19.315 15.653-34.976 34.967-34.986l80.866-.04a37.186 37.186 0 0 1 32.238 18.617z"/>
  <path fill="#ff3c5a" d="M26.491 141.083 97.848 17.489C107.504.765 128.889-4.965 145.614 4.691c16.727 9.657 22.463 31.043 12.815 47.775l-40.399 70.052a37.188 37.188 0 0 1-32.242 18.61z"/>
  <path fill="#ffc5ce" d="m179.954 54.98 71.357 123.594c9.657 16.725 3.926 38.11-12.799 47.767-16.726 9.657-38.116 3.931-47.78-12.79l-40.47-70.012a37.189 37.189 0 0 1 .006-37.228z"/>
</svg>
